Sweet-Rainbow/icons/libreoffice-calc.svg

<?xml version="1.0" encoding="UTF-8" standalone="no"?>
<!-- Generator: Gravit.io -->

<svg
   xmlns:dc="http://purl.org/dc/elements/1.1/"
   xmlns:cc="http://creativecommons.org/ns#"
   xmlns:rdf="http://www.w3.org/1999/02/22-rdf-syntax-ns#"
   xmlns:svg="http://www.w3.org/2000/svg"
   xmlns="http://www.w3.org/2000/svg"
   xmlns:sodipodi="http://sodipodi.sourceforge.net/DTD/sodipodi-0.dtd"
   xmlns:inkscape="http://www.inkscape.org/namespaces/inkscape"
   style="isolation:isolate"
   viewBox="0 0 36 36"
   width="48"
   height="48"
   version="1.1"
   id="svg21"
   sodipodi:docname="libreoffice-calc.svg"
   inkscape:version="0.92.4 (5da689c313, 2019-01-14)">
  <metadata
     id="metadata27">
    <rdf:RDF>
      <cc:Work
         rdf:about="">
        <dc:format>image/svg+xml</dc:format>
        <dc:type
           rdf:resource="http://purl.org/dc/dcmitype/StillImage" />
        <dc:title></dc:title>
      </cc:Work>
    </rdf:RDF>
  </metadata>
  <defs
     id="defs25" />
  <sodipodi:namedview
     pagecolor="#ffffff"
     bordercolor="#666666"
     borderopacity="1"
     objecttolerance="10"
     gridtolerance="10"
     guidetolerance="10"
     inkscape:pageopacity="0"
     inkscape:pageshadow="2"
     inkscape:window-width="640"
     inkscape:window-height="480"
     id="namedview23"
     showgrid="false"
     inkscape:zoom="29.365243"
     inkscape:cx="25.325443"
     inkscape:cy="32"
     inkscape:current-layer="svg21"
     units="px" />
  <linearGradient
     id="_lgradient_9"
     x1="0"
     y1="0.5"
     x2="1"
     y2="0.5"
     gradientTransform="matrix(20,0,0,20,25.124,26)"
     gradientUnits="userSpaceOnUse">
    <stop
       offset="0%"
       stop-opacity="1"
       style="stop-color:rgb(67,233,123)"
       id="stop2" />
    <stop
       offset="97.82608695652173%"
       stop-opacity="1"
       style="stop-color:rgb(56,249,215)"
       id="stop4" />
  </linearGradient>
  <linearGradient
     id="_lgradient_10"
     x1="24.624672"
     y1="35.999638"
     x2="45.624458"
     y2="35.999638"
     gradientTransform="scale(0.99998993,1.0000101)"
     gradientUnits="userSpaceOnUse">
    <stop
       offset="0%"
       stop-opacity="1"
       style="stop-color:rgb(67,233,123)"
       id="stop7" />
    <stop
       offset="97.82608695652173%"
       stop-opacity="1"
       style="stop-color:rgb(56,249,215)"
       id="stop9" />
  </linearGradient>
  <linearGradient
     id="_lgradient_11"
     x1="0"
     y1="0.5"
     x2="1"
     y2="0.5"
     gradientTransform="matrix(40,0,0,44,2,2)"
     gradientUnits="userSpaceOnUse">
    <stop
       offset="0%"
       stop-opacity="1"
       style="stop-color:rgb(67,233,123)"
       id="stop14" />
    <stop
       offset="97.82608695652173%"
       stop-opacity="1"
       style="stop-color:rgb(56,249,215)"
       id="stop16" />
  </linearGradient>
  <g
     id="g839"
     transform="matrix(0.80898876,0,0,0.80898876,-1.2636404,-1.6179774)">
    <path
       id="path12"
       stroke-miterlimit="3"
       d="m 26.943,35.391 v 0 c -0.038,0.499 -0.475,0.875 -0.977,0.839 v 0 c -0.501,-0.037 -0.877,-0.474 -0.839,-0.975 v 0 c 0.186,-2.514 1.32,-4.869 3.172,-6.587 C 30.151,26.955 32.586,26 35.112,26 c 2.653,0 5.202,1.055 7.081,2.927 1.875,1.878 2.931,4.423 2.931,7.073 0,2.65 -1.056,5.195 -2.931,7.073 C 40.314,44.945 37.765,46 35.112,46 v 0 c -0.503,0 -0.91,-0.407 -0.91,-0.909 v 0 c 0,-0.502 0.407,-0.909 0.91,-0.909 v 0 c 2.171,0 4.255,-0.864 5.793,-2.396 1.534,-1.536 2.399,-3.618 2.399,-5.786 0,-2.168 -0.865,-4.25 -2.399,-5.786 -1.538,-1.532 -3.622,-2.396 -5.793,-2.396 -2.066,0 -4.06,0.777 -5.575,2.182 -1.516,1.405 -2.44,3.332 -2.594,5.391 z m 4.36,7.854 v 0 c 0.444,0.234 0.615,0.784 0.382,1.228 v 0 c -0.234,0.444 -0.784,0.615 -1.229,0.382 v 0 c -1.893,-0.996 -3.422,-2.573 -4.355,-4.496 v 0 c -0.221,-0.451 -0.034,-0.996 0.418,-1.216 v 0 c 0.453,-0.219 0.999,-0.031 1.22,0.421 v 0 c 0.765,1.577 2.012,2.863 3.564,3.681 z m 6.772,-4.479 v 0 c 0.61,-0.049 1.143,0.406 1.19,1.014 v 0 c 0.048,0.608 -0.407,1.139 -1.013,1.185 v 0 c -0.476,0.039 -0.951,0.055 -1.426,0.055 -0.387,-0.005 -0.779,-0.027 -1.16,-0.077 -0.448,-0.05 -0.89,-0.144 -1.321,-0.265 -0.365,-0.105 -0.713,-0.249 -1.05,-0.426 -0.359,-0.199 -0.696,-0.442 -0.994,-0.723 -0.282,-0.277 -0.525,-0.592 -0.724,-0.94 -0.205,-0.364 -0.354,-0.762 -0.442,-1.171 -0.105,-0.47 -0.161,-0.951 -0.155,-1.431 0.005,-0.481 0.061,-0.956 0.171,-1.426 0.1,-0.409 0.254,-0.801 0.464,-1.166 0.199,-0.348 0.442,-0.663 0.73,-0.934 0.298,-0.287 0.635,-0.53 1,-0.723 0.32,-0.172 0.652,-0.31 1,-0.409 0.409,-0.122 0.823,-0.21 1.249,-0.266 0.392,-0.049 0.79,-0.082 1.188,-0.082 0.491,-0.006 0.983,0.011 1.47,0.049 v 0 c 0.606,0.049 1.059,0.581 1.011,1.188 v 0 c -0.049,0.607 -0.581,1.06 -1.188,1.011 v 0 c -0.42,-0.033 -0.84,-0.044 -1.266,-0.038 -0.309,0 -0.624,0.022 -0.928,0.066 -0.309,0.039 -0.608,0.1 -0.906,0.188 -0.205,0.061 -0.403,0.144 -0.591,0.243 -0.188,0.1 -0.36,0.227 -0.514,0.37 -0.133,0.127 -0.243,0.271 -0.337,0.431 -0.105,0.183 -0.183,0.382 -0.227,0.586 -0.077,0.304 -0.116,0.619 -0.116,0.934 0,0.309 0.033,0.624 0.1,0.928 0.044,0.199 0.116,0.392 0.221,0.575 0.082,0.154 0.193,0.298 0.326,0.42 0.149,0.149 0.32,0.27 0.508,0.37 0.193,0.105 0.398,0.188 0.613,0.254 0.315,0.088 0.641,0.155 0.967,0.193 0.304,0.039 0.614,0.056 0.918,0.061 0.414,0 0.823,-0.016 1.232,-0.044 z"
       style="vector-effect:non-scaling-stroke;fill:url(#_lgradient_9);fill-rule:evenodd;stroke:url(#_lgradient_10);stroke-width:1;stroke-linecap:square;stroke-linejoin:miter;stroke-miterlimit:3"
       inkscape:connector-curvature="0" />
    <path
       id="path19"
       d="m 10.62,18 v -3.5 0 0 h 5.004 v 0 3.5 z m 0,3 v 3.5 h 5.004 V 21 Z m 13,-3 v -3.5 h -4.996 v 0 3.5 z m 0,3 v 3.5 H 18.624 V 21 Z M 31,6 V 6 C 29.896,6 29,5.104 29,4 v 0 c 0,-1.104 0.896,-2 2,-2 v 0 h 6 c 2.76,0 5,2.24 5,5 v 6 0 c 0,1.104 -0.896,2 -2,2 v 0 c -1.104,0 -2,-0.896 -2,-2 V 13 9 C 38,7.344 36.656,6 35,6 Z m -9,36 v 0 c 1.104,0 2,0.896 2,2 v 0 c 0,1.104 -0.896,2 -2,2 v 0 H 7 C 4.24,46 2,43.76 2,41 V 7 C 2,4.24 4.24,2 7,2 h 13.77 c 1.656,0 3.925,0.975 5.065,2.176 L 41.34,20.51 v 0 c 0.817,0.74 0.882,2.005 0.145,2.825 v 0 c -0.737,0.82 -2.003,0.889 -2.825,0.155 v 0 L 22.915,6.729 C 22.537,6.327 21.782,6 21.23,6 H 9 C 7.344,6 6,7.344 6,9 v 30 c 0,1.656 1.344,3 3,3 z M 9.62,11.5 h 15 c 1.104,0 2,0.896 2,2 v 12 c 0,1.104 -0.896,2 -2,2 h -15 c -1.104,0 -2,-0.896 -2,-2 v -12 c 0,-1.104 0.896,-2 2,-2 z"
       style="fill:url(#_lgradient_11);fill-rule:evenodd"
       inkscape:connector-curvature="0" />
  </g>
</svg>

<?xml version="1.0" encoding="UTF-8" standalone="no"?><!-- Generator: Gravit.io --><svg xmlns="http://www.w3.org/2000/svg" xmlns:xlink="http://www.w3.org/1999/xlink" style="isolation:isolate" viewBox="0 0 48 48" width="48pt" height="48pt"><linearGradient id="_lgradient_9" x1="0" y1="0.5" x2="1" y2="0.5" gradientTransform="matrix(20,0,0,20,25.124,26)" gradientUnits="userSpaceOnUse"><stop offset="0%" stop-opacity="1" style="stop-color:rgb(67,233,123)"/><stop offset="97.82608695652173%" stop-opacity="1" style="stop-color:rgb(56,249,215)"/></linearGradient><linearGradient id="_lgradient_10" x1="0" y1="0.5" x2="1" y2="0.5"><stop offset="0%" stop-opacity="1" style="stop-color:rgb(67,233,123)"/><stop offset="97.82608695652173%" stop-opacity="1" style="stop-color:rgb(56,249,215)"/></linearGradient><path d=" M 26.943 35.391 L 26.943 35.391 C 26.905 35.89 26.468 36.266 25.966 36.23 L 25.966 36.23 C 25.465 36.193 25.089 35.756 25.127 35.255 L 25.127 35.255 C 25.313 32.741 26.447 30.386 28.299 28.668 C 30.151 26.955 32.586 26 35.112 26 C 37.765 26 40.314 27.055 42.193 28.927 C 44.068 30.805 45.124 33.35 45.124 36 C 45.124 38.65 44.068 41.195 42.193 43.073 C 40.314 44.945 37.765 46 35.112 46 L 35.112 46 C 34.609 46 34.202 45.593 34.202 45.091 L 34.202 45.091 C 34.202 44.589 34.609 44.182 35.112 44.182 L 35.112 44.182 C 37.283 44.182 39.367 43.318 40.905 41.786 C 42.439 40.25 43.304 38.168 43.304 36 C 43.304 33.832 42.439 31.75 40.905 30.214 C 39.367 28.682 37.283 27.818 35.112 27.818 C 33.046 27.818 31.052 28.595 29.537 30 C 28.021 31.405 27.097 33.332 26.943 35.391 L 26.943 35.391 Z  M 31.303 43.245 L 31.303 43.245 C 31.747 43.479 31.918 44.029 31.685 44.473 L 31.685 44.473 C 31.451 44.917 30.901 45.088 30.456 44.855 L 30.456 44.855 C 28.563 43.859 27.034 42.282 26.101 40.359 L 26.101 40.359 C 25.88 39.908 26.067 39.363 26.519 39.143 L 26.519 39.143 C 26.972 38.924 27.518 39.112 27.739 39.564 L 27.739 39.564 C 28.504 41.141 29.751 42.427 31.303 43.245 L 31.303 43.245 Z  M 38.075 38.766 L 38.075 38.766 C 38.685 38.717 39.218 39.172 39.265 39.78 L 39.265 39.78 C 39.313 40.388 38.858 40.919 38.252 40.965 L 38.252 40.965 C 37.776 41.004 37.301 41.02 36.826 41.02 C 36.439 41.015 36.047 40.993 35.666 40.943 C 35.218 40.893 34.776 40.799 34.345 40.678 C 33.98 40.573 33.632 40.429 33.295 40.252 C 32.936 40.053 32.599 39.81 32.301 39.529 C 32.019 39.252 31.776 38.937 31.577 38.589 C 31.372 38.225 31.223 37.827 31.135 37.418 C 31.03 36.948 30.974 36.467 30.98 35.987 C 30.985 35.506 31.041 35.031 31.151 34.561 C 31.251 34.152 31.405 33.76 31.615 33.395 C 31.814 33.047 32.057 32.732 32.345 32.461 C 32.643 32.174 32.98 31.931 33.345 31.738 C 33.665 31.566 33.997 31.428 34.345 31.329 C 34.754 31.207 35.168 31.119 35.594 31.063 C 35.986 31.014 36.384 30.981 36.782 30.981 C 37.273 30.975 37.765 30.992 38.252 31.03 L 38.252 31.03 C 38.858 31.079 39.311 31.611 39.263 32.218 L 39.263 32.218 C 39.214 32.825 38.682 33.278 38.075 33.229 L 38.075 33.229 C 37.655 33.196 37.235 33.185 36.809 33.191 C 36.5 33.191 36.185 33.213 35.881 33.257 C 35.572 33.296 35.273 33.357 34.975 33.445 C 34.77 33.506 34.572 33.589 34.384 33.688 C 34.196 33.788 34.024 33.915 33.87 34.058 C 33.737 34.185 33.627 34.329 33.533 34.489 C 33.428 34.672 33.35 34.871 33.306 35.075 C 33.229 35.379 33.19 35.694 33.19 36.009 C 33.19 36.318 33.223 36.633 33.29 36.937 C 33.334 37.136 33.406 37.329 33.511 37.512 C 33.593 37.666 33.704 37.81 33.837 37.932 C 33.986 38.081 34.157 38.202 34.345 38.302 C 34.538 38.407 34.743 38.49 34.958 38.556 C 35.273 38.644 35.599 38.711 35.925 38.749 C 36.229 38.788 36.539 38.805 36.843 38.81 C 37.257 38.81 37.666 38.794 38.075 38.766 Z " fill-rule="evenodd" fill="url(#_lgradient_9)" vector-effect="non-scaling-stroke" stroke-width="1" stroke="url(#_lgradient_10)" stroke-linejoin="miter" stroke-linecap="square" stroke-miterlimit="3"/><linearGradient id="_lgradient_11" x1="0" y1="0.5" x2="1" y2="0.5" gradientTransform="matrix(40,0,0,44,2,2)" gradientUnits="userSpaceOnUse"><stop offset="0%" stop-opacity="1" style="stop-color:rgb(67,233,123)"/><stop offset="97.82608695652173%" stop-opacity="1" style="stop-color:rgb(56,249,215)"/></linearGradient><path d=" M 10.62 18 L 10.62 14.5 L 10.62 14.5 L 10.62 14.5 L 15.624 14.5 L 15.624 14.5 L 15.624 18 L 10.62 18 Z  M 10.62 21 L 10.62 24.5 L 15.624 24.5 L 15.624 21 L 10.62 21 Z  M 23.62 18 L 23.62 14.5 L 18.624 14.5 L 18.624 14.5 L 18.624 18 L 23.62 18 Z  M 23.62 21 L 23.62 24.5 L 18.624 24.5 L 18.624 21 L 23.62 21 Z  M 31 6 L 31 6 C 29.896 6 29 5.104 29 4 L 29 4 C 29 2.896 29.896 2 31 2 L 31 2 L 37 2 C 39.76 2 42 4.24 42 7 L 42 13 L 42 13 C 42 14.104 41.104 15 40 15 L 40 15 C 38.896 15 38 14.104 38 13 L 38 13 L 38 9 C 38 7.344 36.656 6 35 6 L 31 6 L 31 6 L 31 6 L 31 6 Z  M 22 42 L 22 42 C 23.104 42 24 42.896 24 44 L 24 44 C 24 45.104 23.104 46 22 46 L 22 46 L 7 46 C 4.24 46 2 43.76 2 41 L 2 7 C 2 4.24 4.24 2 7 2 L 20.77 2 C 22.426 2 24.695 2.975 25.835 4.176 L 41.34 20.51 L 41.34 20.51 C 42.157 21.25 42.222 22.515 41.485 23.335 L 41.485 23.335 C 40.748 24.155 39.482 24.224 38.66 23.49 L 38.66 23.49 L 22.915 6.729 C 22.537 6.327 21.782 6 21.23 6 L 9 6 C 7.344 6 6 7.344 6 9 L 6 39 C 6 40.656 7.344 42 9 42 L 22 42 L 22 42 L 22 42 L 22 42 Z  M 9.62 11.5 L 24.62 11.5 C 25.724 11.5 26.62 12.396 26.62 13.5 L 26.62 25.5 C 26.62 26.604 25.724 27.5 24.62 27.5 L 9.62 27.5 C 8.516 27.5 7.62 26.604 7.62 25.5 L 7.62 13.5 C 7.62 12.396 8.516 11.5 9.62 11.5 L 9.62 11.5 L 9.62 11.5 L 9.62 11.5 Z " fill-rule="evenodd" fill="url(#_lgradient_11)"/></svg>
